packages/js/images/duplicate-post-plans.svg

<svg width="254" height="96" viewBox="0 0 254 96" fill="none" xmlns="http://www.w3.org/2000/svg">
<rect width="254" height="96" fill="#5D237A"/>
<g clip-path="url(#clip0_23_505)">
<rect width="80" height="80" transform="translate(86 8)" fill="#5D237A"/>
<path d="M98.8 8H153.2C156.595 8 159.851 9.34857 162.251 11.749C164.651 14.1495 166 17.4052 166 20.8V88H98.8C95.4052 88 92.1495 86.6514 89.749 84.251C87.3486 81.8505 86 78.5948 86 75.2V20.8C86 17.4052 87.3486 14.1495 89.749 11.749C92.1495 9.34857 95.4052 8 98.8 8Z" fill="#5D237A"/>
<path d="M131.411 66.6432H95.632V14.4048H123.976L131.411 21.64V66.6432Z" fill="white"/>
<path d="M123.976 21.64H131.371L123.976 14.4048V21.64Z" fill="white"/>
<path d="M131.663 21.3823L124.24 14.1583L124.229 14.1487C124.207 14.1269 124.182 14.1086 124.154 14.0943L124.133 14.0831C124.106 14.0695 124.077 14.0598 124.047 14.0543C124.025 14.0527 124.004 14.0527 123.983 14.0543H95.6323C95.5406 14.0563 95.4532 14.0932 95.3878 14.1574C95.3224 14.2216 95.2839 14.3083 95.2803 14.3999V66.6431C95.2803 66.7386 95.3182 66.8302 95.3857 66.8977C95.4532 66.9652 95.5448 67.0031 95.6403 67.0031H131.411C131.507 67.0031 131.599 66.9652 131.666 66.8977C131.734 66.8302 131.771 66.7386 131.771 66.6431V21.6399C131.771 21.5431 131.732 21.4504 131.663 21.3823ZM130.488 21.2799H124.336V15.2607L130.488 21.2799ZM95.9923 66.2831V14.7631H123.616V21.6431C123.616 21.7386 123.654 21.8302 123.722 21.8977C123.789 21.9652 123.881 22.0031 123.976 22.0031H131.051V66.2831H95.9923Z" fill="#A4286A"/>
<path d="M106.509 40.1441C106.401 40.1225 106.294 40.0952 106.189 40.0625C106.086 40.0309 105.985 39.9935 105.886 39.9505C105.837 39.9313 105.787 39.9089 105.739 39.8849C105.667 39.8497 105.592 39.8097 105.509 39.7617C105.425 39.7137 105.379 39.6817 105.325 39.6449L105.195 39.5537C105.11 39.4897 105.035 39.4225 104.95 39.3505C104.802 39.2158 104.666 39.068 104.544 38.9089C104.501 38.8513 104.464 38.8001 104.43 38.7489C104.372 38.6609 104.319 38.5701 104.27 38.4769C104.008 37.9947 103.87 37.4546 103.87 36.9057V27.4433C103.87 26.8948 104.008 26.3552 104.27 25.8737C104.319 25.7798 104.372 25.6885 104.43 25.6001C104.489 25.5137 104.553 25.4273 104.622 25.3457C104.824 25.0995 105.061 24.8839 105.325 24.7057C105.413 24.6465 105.504 24.5905 105.597 24.5457C106.078 24.2824 106.619 24.1449 107.168 24.1457H115.357L115.677 23.2625H107.173C106.063 23.2637 104.999 23.7051 104.214 24.4897C103.429 25.2743 102.987 26.3382 102.985 27.4481V36.9137C102.987 38.0238 103.428 39.0881 104.213 39.873C104.998 40.658 106.062 41.0996 107.173 41.1009H107.72V40.2161H107.173C106.949 40.2145 106.727 40.1904 106.509 40.1441ZM120.774 23.5201L120.707 23.4961L120.4 24.3201L120.469 24.3457C120.612 24.3996 120.751 24.4633 120.886 24.5361C120.979 24.5873 121.07 24.6433 121.158 24.6961C121.422 24.8747 121.659 25.0902 121.862 25.3361C121.929 25.4177 121.993 25.4961 122.053 25.5905C122.112 25.6849 122.168 25.7713 122.213 25.8641C122.474 26.3459 122.612 26.8853 122.613 27.4337V40.2017H114.259L114.237 40.2385C114.089 40.4977 113.936 40.7441 113.779 40.9713L113.701 41.0865H123.499V27.4433C123.496 26.5903 123.233 25.7584 122.747 25.0578C122.26 24.3572 121.572 23.8209 120.774 23.5201Z" fill="#A4286A"/>
<path d="M108.768 40.2896V42.5104C110.144 42.4576 111.218 42 112.128 41.0832C113.067 40.1392 113.874 38.6672 114.667 36.4432L120.56 20.6752H117.707L112.965 33.8464L110.606 26.4608H108L111.461 35.3504C111.795 36.2058 111.795 37.1558 111.461 38.0112C111.109 38.9136 110.48 39.9744 108.768 40.2896Z" fill="#A4286A"/>
<path d="M156.368 81.5952H120.589V29.3568H148.934L156.368 36.592V81.5952Z" fill="white"/>
<path d="M148.934 36.592H156.33L148.934 29.3568V36.592Z" fill="white"/>
<path d="M156.619 36.3345L149.185 29.0993C149.163 29.0774 149.137 29.0591 149.109 29.0449L149.089 29.0337C149.061 29.02 149.032 29.0097 149.001 29.0033C148.979 29.0017 148.956 29.0017 148.934 29.0033H120.589C120.493 29.0033 120.401 29.0412 120.334 29.1087C120.266 29.1762 120.229 29.2678 120.229 29.3633V81.6001C120.229 81.6955 120.266 81.7871 120.334 81.8546C120.401 81.9221 120.493 81.9601 120.589 81.9601H156.368C156.463 81.9601 156.555 81.9221 156.622 81.8546C156.69 81.7871 156.728 81.6955 156.728 81.6001V36.5921C156.728 36.544 156.719 36.4963 156.7 36.452C156.681 36.4077 156.654 36.3677 156.619 36.3345ZM155.446 36.2321H149.294V30.2129L155.446 36.2321ZM120.949 81.2353V29.7153H148.574V36.5953C148.574 36.6907 148.612 36.7822 148.68 36.8497C148.713 36.8834 148.753 36.9101 148.796 36.9282C148.84 36.9464 148.887 36.9556 148.934 36.9553H156.008V81.2353H120.949Z" fill="#A4286A"/>
<path d="M131.468 54.4208C131.362 54.3984 131.256 54.3712 131.148 54.3392C131.039 54.3072 130.943 54.2688 130.844 54.2272C130.796 54.2064 130.746 54.184 130.698 54.16C130.65 54.136 130.551 54.0848 130.468 54.0368C130.384 53.9888 130.336 53.9584 130.284 53.9216C130.231 53.8848 130.196 53.8608 130.154 53.8288C130.069 53.766 129.987 53.6987 129.909 53.6272C129.761 53.4919 129.625 53.3436 129.503 53.184C129.458 53.1264 129.421 53.0752 129.389 53.024C129.33 52.936 129.274 52.8448 129.229 52.752C128.967 52.2696 128.83 51.7296 128.829 51.1808V41.72C128.83 41.1712 128.967 40.6312 129.229 40.1488C129.28 40.056 129.336 39.9648 129.389 39.8768C129.442 39.7888 129.512 39.704 129.58 39.6224C129.783 39.3766 130.02 39.1611 130.284 38.9824C130.372 38.9232 130.463 38.8672 130.556 38.8224C130.84 38.6672 131.145 38.5556 131.463 38.4912C131.681 38.4458 131.904 38.4228 132.127 38.4224H140.32L140.64 37.5392H132.132C131.021 37.5405 129.957 37.982 129.172 38.767C128.387 39.552 127.946 40.6163 127.944 41.7264V51.184C127.946 52.2941 128.387 53.3584 129.172 54.1434C129.957 54.9284 131.021 55.3699 132.132 55.3712H132.677V54.488H132.132C131.908 54.4881 131.686 54.4656 131.468 54.4208ZM145.733 37.7968L145.664 37.7712L145.36 38.6L145.428 38.6256C145.572 38.6791 145.712 38.7433 145.847 38.8176C145.94 38.8663 146.031 38.9197 146.119 38.9776C146.383 39.1563 146.62 39.3718 146.823 39.6176C146.89 39.6992 146.954 39.7776 147.013 39.872C147.071 39.9599 147.124 40.0507 147.173 40.144C147.436 40.626 147.574 41.1661 147.575 41.7152V54.4832H139.216L139.196 54.52C139.048 54.7776 138.893 55.0256 138.738 55.2528L138.66 55.3664H148.458V41.72C148.455 40.8669 148.193 40.0349 147.706 39.3343C147.22 38.6337 146.531 38.0975 145.733 37.7968Z" fill="#A4286A"/>
<path d="M133.726 54.56V56.7808C135.102 56.7264 136.174 56.2688 137.086 55.352C138.025 54.4096 138.832 52.9376 139.625 50.72L145.51 34.9456H142.665L137.923 48.1168L135.564 40.736H132.958L136.419 49.6256C136.753 50.481 136.753 51.4309 136.419 52.2864C136.067 53.1904 135.44 54.2512 133.726 54.56Z" fill="#A4286A"/>
<path d="M127.866 58.5008L139.28 68.5184L127.874 78.0112V72.4208C127.874 72.4208 113.016 73.1328 111.965 55.6112C116.317 64.7312 127.874 64.016 127.874 64.016L127.866 58.5008Z" fill="#96CB06"/>
</g>
<defs>
<clipPath id="clip0_23_505">
<rect width="80" height="80" fill="white" transform="translate(86 8)"/>
</clipPath>
</defs>
</svg>

<svg width="254" height="96" fill="none" xmlns="http://www.w3.org/2000/svg"><path fill="#5D237A" d="M0 0h254v96H0z"/><g clip-path="url(#clip0_23_505)"><path fill="#5D237A" d="M86 8h80v80H86z"/><path d="M98.8 8h54.4A12.799 12.799 0 0 1 166 20.8V88H98.8A12.8 12.8 0 0 1 86 75.2V20.8A12.8 12.8 0 0 1 98.8 8z" fill="#5D237A"/><path d="M131.411 66.643H95.632V14.405h28.344l7.435 7.235v45.003z" fill="#fff"/><path d="M123.976 21.64h7.395l-7.395-7.235v7.235z" fill="#fff"/><path d="M131.663 21.382l-7.423-7.224-.011-.01a.3.3 0 0 0-.075-.054l-.021-.01a.32.32 0 0 0-.086-.03.427.427 0 0 0-.064 0h-28.35a.36.36 0 0 0-.353.346v52.243a.36.36 0 0 0 .36.36h35.771a.36.36 0 0 0 .36-.36V21.64a.362.362 0 0 0-.108-.258zm-1.175-.102h-6.152v-6.02l6.152 6.02zM95.992 66.283v-51.52h27.624v6.88a.359.359 0 0 0 .36.36h7.075v44.28H95.992z" fill="#A4286A"/><path d="M106.509 40.144a3.164 3.164 0 0 1-1-.382c-.084-.048-.13-.08-.184-.117l-.13-.091c-.085-.064-.16-.132-.245-.204a3.37 3.37 0 0 1-.52-.601 3.196 3.196 0 0 1-.16-.272 3.292 3.292 0 0 1-.4-1.571v-9.463c0-.548.138-1.088.4-1.57.049-.093.102-.184.16-.273.059-.086.123-.173.192-.254.202-.247.439-.462.703-.64.088-.06.179-.116.272-.16a3.263 3.263 0 0 1 1.571-.4h8.189l.32-.884h-8.504a4.192 4.192 0 0 0-4.188 4.186v9.466a4.195 4.195 0 0 0 4.188 4.187h.547v-.885h-.547a3.306 3.306 0 0 1-.664-.072zm14.265-16.624l-.067-.024-.307.824.069.026a3.4 3.4 0 0 1 .417.19c.093.051.184.107.272.16a3.339 3.339 0 0 1 .895.894c.059.095.115.181.16.274a3.31 3.31 0 0 1 .4 1.57v12.768h-8.354l-.022.037c-.148.259-.301.505-.458.732l-.078.116h9.798V27.443a4.212 4.212 0 0 0-2.725-3.923z" fill="#A4286A"/><path d="M108.768 40.29v2.22c1.376-.052 2.45-.51 3.36-1.427.939-.944 1.746-2.416 2.539-4.64l5.893-15.768h-2.853l-4.742 13.171-2.359-7.385H108l3.461 8.89a3.658 3.658 0 0 1 0 2.66c-.352.903-.981 1.963-2.693 2.279z" fill="#A4286A"/><path d="M156.368 81.595h-35.779V29.357h28.345l7.434 7.235v45.003z" fill="#fff"/><path d="M148.934 36.592h7.396l-7.396-7.235v7.235z" fill="#fff"/><path d="M156.619 36.334l-7.434-7.235a.3.3 0 0 0-.076-.054l-.02-.011a.368.368 0 0 0-.088-.03.468.468 0 0 0-.067 0h-28.345a.36.36 0 0 0-.36.36V81.6a.358.358 0 0 0 .36.36h35.779a.359.359 0 0 0 .36-.36V36.592a.355.355 0 0 0-.109-.258zm-1.173-.102h-6.152v-6.02l6.152 6.02zm-34.497 45.003v-51.52h27.625v6.88a.358.358 0 0 0 .36.36h7.074v44.28h-35.059z" fill="#A4286A"/><path d="M131.468 54.42a4.128 4.128 0 0 1-.32-.08 2.809 2.809 0 0 1-.45-.18 4.83 4.83 0 0 1-.23-.123 2.072 2.072 0 0 1-.184-.115c-.053-.037-.088-.061-.13-.093a3.39 3.39 0 0 1-.765-.805 2.292 2.292 0 0 1-.16-.272 3.304 3.304 0 0 1-.4-1.571V41.72a3.304 3.304 0 0 1 .4-1.571c.051-.093.107-.184.16-.272a3.344 3.344 0 0 1 .895-.894c.088-.06.179-.116.272-.16a3.29 3.29 0 0 1 1.571-.4h8.193l.32-.884h-8.508a4.192 4.192 0 0 0-4.188 4.187v9.458a4.195 4.195 0 0 0 4.188 4.187h.545v-.883h-.545a3.28 3.28 0 0 1-.664-.067zm14.265-16.623l-.069-.026-.304.829.068.026c.144.053.284.117.419.192.093.048.184.102.272.16a3.344 3.344 0 0 1 .894.894c.058.088.111.179.16.272.263.482.401 1.022.402 1.571v12.768h-8.359l-.02.037a11.29 11.29 0 0 1-.458.733l-.078.113h9.798V41.72a4.205 4.205 0 0 0-2.725-3.923z" fill="#A4286A"/><path d="M133.726 54.56v2.22c1.376-.054 2.448-.511 3.36-1.428.939-.942 1.746-2.414 2.539-4.632l5.885-15.774h-2.845l-4.742 13.17-2.359-7.38h-2.606l3.461 8.89a3.658 3.658 0 0 1 0 2.66c-.352.904-.979 1.965-2.693 2.274z" fill="#A4286A"/><path d="M127.866 58.5l11.414 10.018-11.406 9.493v-5.59s-14.858.712-15.909-16.81c4.352 9.12 15.909 8.405 15.909 8.405l-.008-5.515z" fill="#96CB06"/></g><defs><clipPath id="clip0_23_505"><path fill="#fff" transform="translate(86 8)" d="M0 0h80v80H0z"/></clipPath></defs></svg>
